X:270
T: Dank - und Freudenlied
N: A0623B
O: Europa, Mitteleuropa, Deutschland
N: Klugs Gsgb 1535 und Schumann 1539
R: Romanze, Ballade, Lied, religioeses Lied
M: 4/2
L: 1/2
K: F
FFA | GFGG | A2
F2 | ABcA | G2F2 | z
FFA | GFGG | A2
F2 | ABcA | G2F2 | z
AAG | FEFD | C2z
C | FFFE | FGA2 |
F2AB | cAG2 | F4 | z

@@@ Tune index: 583
